X:1
T:E tu per cortesia
T:Lodovico Agostini
T:E tu per cortesia
T:Canzone Settima et ultima parte
C:Lodovico Agostini
%%score [ 1 2 3 4 ]
L:1/8
Q:1/4=68
M:4/4
K:C
V:1 treble nm="Soprano" snm="S"
V:2 alto1 nm="Alto" snm="A"
V:3 alto nm="Tenor" snm="T"
V:4 bass3 nm="Bass" snm="B"
V:1
 z8 |[K:Bb] z8 | z8 | z8 | z4 B4 | c6 d2 | e4 e4 | c6 B2 | c4 d4 | e3 e d2 d2- | d2 d2 c4 | B8 | %12
w: ||||E|tu per|cor- te-|sia, E|tu per|cor- te- sia, Pre-|* ga can-|zo-|
 A4 d4 | c2 c2 B2 A2 | G4 A4 | z2 B2 B2 d2 | c2 B2 c4 | d2 d4 =e2 | f8 | d4 z2 d2- | d2 d2 c4 | %21
w: ne, Il|di fe- li- ce e|ca- ro,|Che sia mai|sem- pre piu|se- re- no e|chia-|ro, Pre-|* ga can-|
 B8 | A4 d4 | c2 c2 B2 A2 | G4 A4 | z2 B2 B2 d2 | c2 B2 c4 | d2 d4 =e2 | f8 | d8 |] %30
w: zo-|ne, Il|di fe- li- ce e|ca- ro,|Che sia mai|sem- pre piu|se- re- no e|chia-|ro.|
V:2
 z8 |[K:Bb][K:treble] z8 | z8 | z4 E4 | F6 G2 | _A4 A4 | G4 B4 | _A4 A4 | _A6 A2 | G4 B4- | %10
w: |||E|tu per|cor- te-|sia, E|tu per|cor- te-|sia, Pre-|
 B2 B2 A4 | G8 | F4 B4 | A2 G2 F2 F2 | =E4 F4 | z2 F2 F2 B2 | A2 G2 A3 A | B4 B2 B2- | B2 AG A4 | %19
w: * ga can-|zo-|ne, Il|di fe- li- ce e|ca- ro,|Che sia mai|sem- pre piu se-|re- no e chia-||
 B4 z2 B2- | B2 B2 A4 | G8 | F4 B4 | A2 G2 F2 F2 | =E4 F4 | z2 F2 F2 B2 | A2 G2 A3 A | B4 B2 B2- | %28
w: ro, Pre-|* ga can-|zo-|ne, Il|di fe- li- ce e|ca- ro,|Che sia mai|sem- pre piu se-|re- no e chia-|
 B2 AG A4 | B8 |] %30
w: |ro.|
V:3
 z8 |[K:Bb][K:treble-8] B8 | c6 d2 | e4 c4 | B8 | _A8 | G4 g4 | f4 f4 | e4 f4 | B6 f2- | f2 f2 f4 | %11
w: |E|tu per|cor- te-|sia,|Pre-|ga E|tu per|cor- te-|sia, Pre-|* ga can-|
 d8 | d4 f4 | f2 e2 d2 c2 | c4 c4 | z2 d2 d2 f2 | f2 d2 f4 | f2 f4 B2 | c8 | B4 z2 f2- | f2 f2 f4 | %21
w: zo-|ne, Il|di fe- li- ce e|ca- ro,|Che sia mai|sem- pre piu|se- re- no e|chia-|ro, Pre-|* ga can-|
 d8 | d4 f4 | f2 e2 d2 c2 | c4 c4 | z2 d2 d2 f2 | f2 d2 f4 | f2 f4 B2 | c8 | B8 |] %30
w: zo-|ne, Il|di fe- li- ce e|ca- ro,|Che sia mai|sem- pre piu|se- re- no e|chia-|ro.|
V:4
 z8 |[K:Bb][K:bass] z8 | z8 | z8 | z8 | z8 | z4 E,4 | F,6 G,2 | _A,4 F,4 | E,4 B,4- | B,2 B,2 F,4 | %11
w: ||||||E|tu per|cor- te-|sia, Pre-|* ga can-|
 G,8 | D,4 B,,4 | F,2 C,2 D,2 F,2 | C,4 F,4 | z2 B,,2 B,,2 B,,2 | F,2 G,2 F,4 | B,2 B,4 G,2 | F,8 | %19
w: zo-|ne, Il|di fe- li- ce e|ca- ro,|Che sia mai|sem- pre piu|se- re- no e|chia-|
 B,,4 z2 B,2- | B,2 B,2 F,4 | G,8 | D,4 B,,4 | F,2 C,2 D,2 F,2 | C,4 F,4 | z2 B,,2 B,,2 B,,2 | %26
w: ro, Pre-|* ga can-|zo-|ne, Il|di fe- li- ce e|ca- ro,|Che sia mai|
 F,2 G,2 F,4 | B,2 B,4 G,2 | F,8 | B,,8 |] %30
w: sem- pre piu|se- re- no e|chia-|ro.|

